X:13
T:The Fiery Clockface
M:6/8
Q:3/8=120
R:jig
K:G
d|"G"g2g G2A|"G"B2c d2 e|"F"=f2f A2B|"C"c2d e2f|
"G"g2g G2A|"G"B2c d2d|"C"efg "D7"a2f|"G"g3 g2:|
|:A|"G"B2B GAB|"Am"c2B A2G|"D"F2E D2E|"D7"F2G A2^A|
"G"B2B GAB|"Am"c2B A2G|"D7"FED E2F|"G"G3 G2:|
